icons/breezeLight/toolpath/prof_on_conv.svg

<svg height="75" viewBox="0 0 19.84375 19.843751" width="75" xmlns="http://www.w3.org/2000/svg"><circle cx="-15.742708" cy="287.07809" fill="#4d4d4d" fill-opacity=".5" r="1.719792" stroke-width=".264583" transform="matrix(-1 0 0 1 0 -277.15623)"/><path d="m37.5 8a7.4999998 7.4999998 0 0 0 -7.484375 7h-15.015625v45h45v-15.017578a7.4999998 7.4999998 0 0 0 7-7.482422 7.4999998 7.4999998 0 0 0 -7-7.484375v-15.015625h-15.017578a7.4999998 7.4999998 0 0 0 -7.482422-7zm-21.5 8h14.017578a7.4999998 7.4999998 0 0 0 7.482422 7 7.4999998 7.4999998 0 0 0 7.484375-7h14.015625v14.017578a7.4999998 7.4999998 0 0 0 -7 7.482422 7.4999998 7.4999998 0 0 0 7 7.484375v14.015625h-43zm43.5 15a6.5 6.5 0 0 1 6.5 6.5 6.5 6.5 0 0 1 -6.5 6.5 6.5 6.5 0 0 1 -6.5-6.5 6.5 6.5 0 0 1 6.5-6.5z" fill="#4d4d4d" stroke-width=".989072" transform="scale(.26458334)"/><circle cx="-9.921875" cy="281.2572" fill="#3daee9" r="1.719792" stroke-width=".264583" transform="matrix(-1 0 0 1 0 -277.15623)"/><path d="m47 11-8.488281 3.394531a1.5000001 1.5000001 0 0 0 -1.011719-.394531 1.5000001 1.5000001 0 0 0 -1.5 1.5 1.5000001 1.5000001 0 0 0 1.5 1.5 1.5000001 1.5000001 0 0 0 1.011719-.394531l8.488281 3.394531v-1l-7.5-3h1.5v-1h-1.5l7.5-3zm-4 4v1h4v-1zm6 0v1h4v-1zm6 0v1h4v4h1v-5zm4 7v4h1v-4zm0 6v4h1v-4zm0 6v2.087891a1.5000001 1.5000001 0 0 0 -1 1.412109 1.5000001 1.5000001 0 0 0 1.5 1.5 1.5000001 1.5000001 0 0 0 1.5-1.5 1.5000001 1.5000001 0 0 0 -1-1.412109v-2.087891z" fill="#da4453" stroke-width=".417033" transform="scale(.26458334)"/></svg>

<?xml version="1.0" encoding="UTF-8" standalone="no"?>
<svg
   xmlns:dc="http://purl.org/dc/elements/1.1/"
   xmlns:cc="http://creativecommons.org/ns#"
   xmlns:rdf="http://www.w3.org/1999/02/22-rdf-syntax-ns#"
   xmlns:svg="http://www.w3.org/2000/svg"
   xmlns="http://www.w3.org/2000/svg"
   xmlns:sodipodi="http://sodipodi.sourceforge.net/DTD/sodipodi-0.dtd"
   xmlns:inkscape="http://www.inkscape.org/namespaces/inkscape"
   sodipodi:docname="prof_on_conv.svg"
   inkscape:version="1.0beta1 (fe3e306, 2019-09-17)"
   id="svg8"
   version="1.1"
   viewBox="0 0 19.84375 19.843751"
   height="75"
   width="75">
  <defs
     id="defs2" />
  <sodipodi:namedview
     inkscape:document-rotation="0"
     inkscape:window-maximized="0"
     inkscape:window-y="0"
     inkscape:window-x="799"
     inkscape:window-height="1042"
     inkscape:window-width="1105"
     showguides="true"
     units="px"
     showgrid="true"
     inkscape:current-layer="layer1"
     inkscape:document-units="px"
     inkscape:cy="30.090294"
     inkscape:cx="39.771244"
     inkscape:zoom="22.627418"
     inkscape:pageshadow="2"
     inkscape:pageopacity="0.0"
     borderopacity="1.0"
     bordercolor="#666666"
     pagecolor="#ffffff"
     id="base">
    <inkscape:grid
       id="grid10"
       type="xygrid" />
  </sodipodi:namedview>
  <metadata
     id="metadata5">
    <rdf:RDF>
      <cc:Work
         rdf:about="">
        <dc:format>image/svg+xml</dc:format>
        <dc:type
           rdf:resource="http://purl.org/dc/dcmitype/StillImage" />
        <dc:title />
      </cc:Work>
    </rdf:RDF>
  </metadata>
  <g
     transform="translate(0,-277.15623)"
     id="layer1"
     inkscape:groupmode="layer"
     inkscape:label="Layer 1">
    <circle
       style="fill:#4d4d4d;stroke-width:0.264583;fill-opacity:0.5"
       id="path24-3"
       cx="-15.742708"
       cy="287.07809"
       r="1.7197917"
       transform="scale(-1,1)" />
    <path
       transform="matrix(0.26458334,0,0,0.26458334,0,277.15623)"
       d="M 37.5 8 A 7.4999998 7.4999998 0 0 0 30.015625 15 L 15 15 L 15 60 L 60 60 L 60 44.982422 A 7.4999998 7.4999998 0 0 0 67 37.5 A 7.4999998 7.4999998 0 0 0 60 30.015625 L 60 15 L 44.982422 15 A 7.4999998 7.4999998 0 0 0 37.5 8 z M 16 16 L 30.017578 16 A 7.4999998 7.4999998 0 0 0 37.5 23 A 7.4999998 7.4999998 0 0 0 44.984375 16 L 59 16 L 59 30.017578 A 7.4999998 7.4999998 0 0 0 52 37.5 A 7.4999998 7.4999998 0 0 0 59 44.984375 L 59 59 L 16 59 L 16 16 z M 59.5 31 A 6.5 6.5 0 0 1 66 37.5 A 6.5 6.5 0 0 1 59.5 44 A 6.5 6.5 0 0 1 53 37.5 A 6.5 6.5 0 0 1 59.5 31 z "
       style="stroke-width:0.989072;fill:#4d4d4d;fill-opacity:1"
       id="rect14" />
    <circle
       transform="scale(-1,1)"
       r="1.7197917"
       cy="281.2572"
       cx="-9.921875"
       id="path24"
       style="fill:#3daee9;stroke-width:0.26458335;fill-opacity:1" />
    <path
       transform="matrix(0.26458334,0,0,0.26458334,0,277.15623)"
       d="M 47 11 L 38.511719 14.394531 A 1.5000001 1.5000001 0 0 0 37.5 14 A 1.5000001 1.5000001 0 0 0 36 15.5 A 1.5000001 1.5000001 0 0 0 37.5 17 A 1.5000001 1.5000001 0 0 0 38.511719 16.605469 L 47 20 L 47 19 L 39.5 16 L 41 16 L 41 15 L 39.5 15 L 47 12 L 47 11 z M 43 15 L 43 16 L 47 16 L 47 15 L 43 15 z M 49 15 L 49 16 L 53 16 L 53 15 L 49 15 z M 55 15 L 55 16 L 59 16 L 59 20 L 60 20 L 60 15 L 55 15 z M 59 22 L 59 26 L 60 26 L 60 22 L 59 22 z M 59 28 L 59 32 L 60 32 L 60 28 L 59 28 z M 59 34 L 59 36.087891 A 1.5000001 1.5000001 0 0 0 58 37.5 A 1.5000001 1.5000001 0 0 0 59.5 39 A 1.5000001 1.5000001 0 0 0 61 37.5 A 1.5000001 1.5000001 0 0 0 60 36.087891 L 60 34 L 59 34 z "
       style="fill:#da4453;stroke-width:0.4170332;fill-opacity:1"
       id="rect26" />
  </g>
</svg>
